X:232
T:Quick Step 4th Reg’t. RH.232
T:4th Reg’t Quickstep. RH.232
R:quickstep
S:Rev.R.Harrison’s MS,c1815,Cumbria
O:England
A:Temple Sowerby,Cumbria
Z:vmp.Simon Wilson. Review PJH, 2008.
M:6/8
L:1/8
Q:3/8=110
K:G
g2d B2G|fcA F2d|G2A Bcd|dcB A3|\
g2d B2G|ecA F2d|EFG edc|BcA G3:|!
|:e2d efg|dcB A2G|c2B cde|dcB A2c|\
B2d G2g|f2a d2g|fed bag|fge d3:|

